X:1
T:Carmina chromatico - Lassus
%%score [ 1 2 3 4 ]
L:1/8
Q:1/4=108
M:4/4
K:C
V:1 treble nm="Soprano" snm="S"
V:2 treble nm="Alto" snm="A"
V:3 treble-8 nm="Tenor" snm="T"
V:4 bass nm="Bass" snm="B"
V:1
 z4"^Carmina chromatico" E4- | E2 D2 D4 | ^D8 | E6 ^G2 | ^G4 A4 | ^F2 A2 =G4 | G2 =F4 F2 | %7
w: Car\-|* mi- na|chro-|ma- ti-|co, quae|au- dis mo-|du- la- ta|
 ^F2 (G3 F/"^Orlandus Lassus\n(1530-1594)"E/ F2) |[M:4/4] G4 E4- | E4 ^G4- | G4 A4- | A4 B4 | %12
w: te- no\- * * *|re, Haec|* sunt|* il\-|* la,|
 =G6 G2 | ^F2 F2 F4 | ^G8 | z2 E2 ^F4 | =G2 G2 G4 | G2 G2 A4 | A2 _B2 B3 B | _B2 A3 A =B2 | %20
w: qui- bus|no- strae o-|lim|ar- ca-|na sa- lu-|tis Bis se-|nae in- tre- pi-|do, ce- ci- ne-|
 B2 E3 A D2 |[Q:1/4=104] F8 |[Q:1/4=99] F6[Q:1/4=96] E2 |[Q:1/4=94] E4[Q:1/4=91] A4 | %24
w: runt, ce- ci- ne-|runt|o- re|si- byl-|
[Q:1/4=60] !fermata!D4 |] %25
w: lae.|
V:2
 z4 C4- | C2 B,2 B,4 | B,8 | ^G,6 E2 | E4 ^C4 | ^C2 D4 E2- | E2 =C2 D4 | D2 C2 D4 |[M:4/4] D4 G4- | %9
w: Car\-|* mi- na|chro-|ma- ti-|co, quae|au- dis mo\-|* du- la-|ta te- no-|re, Haec|
 G4 E4- | E8 | ^F4 G4 | D4 E4 | ^C4 ^D4 | E4 ^D2 E2- | E2 (A,3 G, A,2) | B,2 E2 =D4 | E2 E2 F4 | %18
w: * sunt||il- la,|qui- bus|no- strae|o- lim ar\-|* ca\- * *|na sa- lu-|tis Bis se-|
 ^F2 G2 G3 =F | F2 F3 E G2 | ^G2 A3 ^F =G2 | C4 D4- | D4 C2 C2 | C8 | !fermata!B,4 |] %25
w: nae in- tre- pi-|do, ce- ci- ne-|runt, ce- ci- ne-|runt o\-|* re si-|byl-|lae.|
V:3
 G6 G2 | G8 | ^F8 | ^c6 B2 | B4 z2 A2 | A4 B2 =c2- | c2 A2 _B4 | A2 G2 A4 | %8
w: Car- mi-|na|chro-|ma- ti-|co, quae|au- dis mo\-|* du- la-|ta te- no-|
[M:4/4][K:treble-8] =B4 c4- | c4 B4- | B4 (^c4 | d4) G4 | B6 B2 | ^A2 A2 B4 | B6 B2 | ^c4 d2 d2- | %16
w: re, Haec|* sunt|* il\-|* la,|qui- bus|no- strae o-|lim ar-|ca- na sa\-|
 d2 (=c2- cB/=A/ B2) | c2 c2 c4 | d2 d2 _e3 d | d2 c3 c d2 | =e2 ^c3 d _B2 | A4 _B4- | %22
w: * lu\- * * * *|tis Bis se-|nae in- tre- pi-|do, ce- ci- ne-|runt, ce- ci- ne-|runt o\-|
 B2 _B2 A2 (A2- | AG G4 =F2) | !fermata!G4 |] %25
w: * re si- byl\-||lae.|
V:4
 z4 C,4- | C,2 G,,2 G,,4 | B,,8 | ^C,6 E,2 | E,4 ^F,4 | ^F,4 G,2 =C,2- | C,2 =F,2 _B,,4 | %7
w: Car\-|* mi- na|chro-|ma- ti-|co, quae|au- dis mo\-|* du- la-|
 D,2 _E,2 D,4 |[M:4/4] G,4 C,4- | C,4 E,4- | E,4 A,,4 | D,4 z2 G,2- | G,2 G,2 E,2 E,2 | ^F,4 B,,4 | %14
w: ta te- no-|re, Haec|* sunt|* il-|la, qui\-|* bus no- strae|o- lim|
 E,4 ^G,4 | A,4 D,4 | =G,8 | C,2 C,2 F,4 | D,2 G,2 _E,3 _B, | _B,2 F,3 A, G,2 | =E,2 A,3 D, G,2 | %21
w: ar- ca-|na sa-|lu-|tis Bis se-|nae in- tre- pi-|do, ce- ci- ne-|runt, ce- ci- ne-|
 F,4 _B,,4- | B,,4 F,,2 A,,2 | (C,3 =B,, A,,4) | !fermata!G,,4 |] %25
w: runt o\-|* re si-|byl\- * *|lae.|

